src/static/logos/codepen-icon.svg

<?xml version="1.0" encoding="UTF-8" standalone="no" ?>
<svg width="256px" height="256px" viewBox="0 0 256 256" version="1.1" xmlns="http://www.w3.org/2000/svg" xmlns:xlink="http://www.w3.org/1999/xlink" preserveAspectRatio="xMidYMid">
    <g>
        <path d="M255.806943,87.0866439 C255.748337,86.7763743 255.696625,86.4661047 255.613887,86.1627299 C255.562175,85.9800156 255.500121,85.8076436 255.441515,85.6283767 C255.355329,85.3594764 255.265695,85.0905761 255.158825,84.8285707 C255.082981,84.6458563 254.996795,84.4700369 254.914056,84.2942175 C254.796843,84.0460018 254.676183,83.8012335 254.538285,83.5633602 C254.441757,83.3875407 254.331439,83.2220636 254.224568,83.0531391 C254.076328,82.825608 253.924641,82.6015244 253.759164,82.3843357 C253.638504,82.222306 253.514396,82.0671712 253.383393,81.9120364 C253.211021,81.70519 253.024859,81.5086859 252.838698,81.3156293 C252.693905,81.1708368 252.549113,81.0260443 252.397425,80.8846993 C252.197474,80.701985 251.990627,80.529613 251.773439,80.3641359 C251.607961,80.2365806 251.445932,80.1055779 251.27356,79.9883649 C251.211506,79.9435482 251.156347,79.8918366 251.090845,79.8504673 L134.098521,1.8486897 C130.406313,-0.616229901 125.590239,-0.616229901 121.898031,1.8486897 L4.89881225,79.8470198 C4.83331089,79.8883891 4.78159929,79.9401007 4.71609793,79.9849174 C4.54372593,80.1055779 4.38169625,80.2331331 4.21621913,80.3606884 C4.00247785,80.529613 3.79218401,80.701985 3.59223249,80.8778044 C3.44054513,81.015702 3.29575265,81.1604945 3.15440761,81.3087344 C2.96135097,81.5017911 2.78208409,81.6982951 2.60626464,81.9051415 C2.47526192,82.0602763 2.35115408,82.2154111 2.23049368,82.3877831 C2.06501656,82.6049719 1.9133292,82.825608 1.76508928,83.0565865 C1.65821864,83.2255111 1.551348,83.3909882 1.45137224,83.5668076 C1.31347464,83.804681 1.19281424,84.0494492 1.07904872,84.29077 C0.996310162,84.4665895 0.906676722,84.6458563 0.834280482,84.8251232 C0.727409841,85.0871287 0.634328961,85.356029 0.548142961,85.6249293 C0.489536481,85.8041962 0.427482561,85.9800156 0.379218401,86.1420453 C0.299927281,86.44542 0.2413208,86.7522422 0.18616176,87.0659592 C0.1551348,87.2245415 0.11721296,87.3796763 0.0965283202,87.5417059 C0.0344744001,88.0174527 2.84217094e-14,88.4931994 2.84217094e-14,88.9792884 L2.84217094e-14,166.994856 C2.84217094e-14,167.477497 0.0344744001,167.960139 0.1034232,168.432438 C0.12755528,168.60481 0.172372,168.742708 0.2068464,168.908185 C0.26200544,169.218455 0.310269601,169.528724 0.413692801,169.838994 C0.461956961,170.011366 0.517116001,170.183738 0.586064801,170.373347 C0.672250801,170.649142 0.758436801,170.924937 0.861860002,171.176601 C0.934256242,171.348973 1.034232,171.521345 1.1031808,171.693717 C1.21694632,171.935037 1.3445016,172.176358 1.4823992,172.428021 C1.57892752,172.600393 1.6892456,172.772765 1.7926688,172.931347 C1.94090872,173.172668 2.1029384,173.379515 2.2753104,173.586361 C2.3959708,173.758733 2.5166312,173.896631 2.6545288,174.062108 C2.83034825,174.268954 2.99927281,174.475801 3.20611921,174.658515 C3.34746425,174.796413 3.48191441,174.968785 3.65428641,175.072208 C3.85423793,175.24458 4.06797921,175.416952 4.27482561,175.596219 C4.44030273,175.734116 4.61956961,175.837539 4.75746721,175.97199 C4.82296857,176.006464 4.86089041,176.075413 4.92983921,176.10644 L121.898031,254.146139 C123.745859,255.387218 125.862587,256.007757 128,255.997414 C130.137413,255.987072 132.254141,255.376875 134.101969,254.146139 L251.101188,176.147809 C251.166689,176.10644 251.221848,176.058176 251.283902,176.013359 C251.456274,175.892698 251.618304,175.765143 251.783781,175.637588 C251.997522,175.468663 252.207816,175.292844 252.407768,175.113577 C252.559455,174.979127 252.704247,174.830887 252.84904,174.686094 C253.038649,174.493038 253.221363,174.296534 253.393735,174.089687 C253.524738,173.934553 253.648846,173.779418 253.769506,173.613941 C253.934983,173.396752 254.086671,173.172668 254.234911,172.945137 C254.341781,172.77966 254.448652,172.610736 254.548628,172.441811 C254.686525,172.20049 254.807186,171.955722 254.924399,171.707506 C255.007137,171.531687 255.093323,171.355867 255.169167,171.176601 C255.276038,170.911148 255.365671,170.642247 255.451857,170.373347 C255.510464,170.19408 255.572517,170.018261 255.624229,169.838994 C255.70352,169.535619 255.758679,169.225349 255.817286,168.91508 C255.844865,168.756498 255.886234,168.601363 255.903472,168.439333 C255.965526,167.963586 256,167.48784 256,167.001751 L256,88.9999731 C256,88.513884 255.962078,88.0381373 255.903472,87.5623906 C255.875892,87.393466 255.824181,87.2555684 255.789706,87.0866439 L255.806943,87.0866439 Z M127.996553,154.022139 L89.0921921,128.000862 L127.996553,101.976137 L166.90436,128.000862 L127.996553,154.022139 L127.996553,154.022139 Z M116.999219,82.8669773 L69.3073339,114.76614 L30.8097713,89.0137628 L116.999219,31.5552802 L116.999219,82.8669773 L116.999219,82.8669773 Z M49.5224757,127.997414 L22.0050096,146.403297 L22.0050096,109.591532 L49.5224757,127.997414 L49.5224757,127.997414 Z M69.3073339,141.242479 L116.999219,173.138194 L116.999219,224.449891 L30.8097713,166.984513 L69.3073339,141.235584 L69.3073339,141.242479 Z M138.997334,173.131299 L186.689219,141.235584 L225.190229,166.984513 L138.997334,224.442996 L138.997334,173.131299 L138.997334,173.131299 Z M206.474077,128.004309 L233.99499,109.59498 L233.99499,146.410191 L206.474077,127.997414 L206.474077,128.004309 Z M186.689219,114.76614 L138.997334,82.8704247 L138.997334,31.5552802 L225.190229,89.0137628 L186.689219,114.76614 L186.689219,114.76614 Z" fill="#ccc"></path>
    </g>
</svg>

<svg width="256" height="256" xmlns="http://www.w3.org/2000/svg" preserveAspectRatio="xMidYMid"><path d="M255.807 87.087c-.059-.31-.11-.62-.193-.924-.052-.183-.114-.355-.172-.535a11.007 11.007 0 00-.283-.8c-.076-.182-.162-.358-.245-.534a9.74 9.74 0 00-.376-.73c-.096-.176-.207-.342-.313-.51a11.038 11.038 0 00-.842-1.142 11.166 11.166 0 00-.544-.596c-.145-.145-.29-.29-.442-.431a9.07 9.07 0 00-.624-.52c-.165-.128-.327-.26-.5-.377-.061-.044-.117-.096-.182-.138l-116.992-78a10.989 10.989 0 00-12.201 0l-117 77.998c-.065.041-.116.093-.182.138-.172.12-.334.248-.5.376a15.52 15.52 0 00-.624.517 8.604 8.604 0 00-.438.43c-.193.194-.372.39-.548.597a6.88 6.88 0 00-.376.483c-.165.217-.317.438-.465.669-.107.169-.214.334-.314.51a9.593 9.593 0 00-.372.724c-.083.176-.172.355-.245.534-.107.262-.2.531-.286.8-.058.18-.12.355-.169.517-.08.303-.138.61-.193.924-.03.159-.069.314-.09.476-.062.475-.096.951-.096 1.437v78.016c0 .482.034.965.103 1.437.025.173.07.31.104.476.055.31.103.62.207.931.048.172.103.345.172.534.086.276.172.552.276.804.072.172.172.344.241.517.114.241.242.482.38.734.096.172.206.345.31.503.148.242.31.449.482.655.121.173.242.31.38.476.175.207.344.414.551.597.141.137.276.31.448.413.2.173.414.345.62.524.166.138.346.242.483.376.066.034.104.103.173.134l116.968 78.04a10.815 10.815 0 006.102 1.851 11.06 11.06 0 006.102-1.85l117-78c.065-.04.12-.089.182-.134.172-.12.334-.248.5-.375.214-.17.424-.345.624-.524.151-.135.296-.283.441-.428a9.876 9.876 0 00.92-1.072 14.55 14.55 0 00.78-1.172c.138-.242.258-.486.375-.734.083-.176.17-.352.245-.531.107-.266.197-.535.283-.804.058-.179.12-.355.172-.534.08-.303.135-.614.193-.924.028-.159.07-.314.086-.476.063-.475.097-.951.097-1.437V89c0-.486-.038-.962-.097-1.438-.027-.169-.079-.306-.113-.475h.017zm-127.81 66.935l-38.905-26.021 38.905-26.025 38.907 26.025-38.907 26.021zm-10.998-71.155l-47.692 31.9L30.81 89.013 117 31.555v51.312zm-67.477 45.13l-27.517 18.406v-36.811l27.517 18.405zm19.785 13.245L117 173.138v51.312l-86.19-57.465 38.498-25.75v.007zm69.69 31.89l47.692-31.896 38.501 25.749-86.193 57.458v-51.312zm67.477-45.128l27.521-18.409v36.815l-27.52-18.413v.007zm-19.785-13.238L138.997 82.87V31.555l86.193 57.459-38.5 25.752z" fill="#ccc"/></svg>
